X:44
T: Virágos fa a szerelem szép fája
O: Gioseni (Bákó), 1929
Q: 1/4=138
M:4/4
L:1/8
K:F
FEDC FEDC | D C3 C2 z2 | 
FGAA cBAG | F F3 F2 z2 | 
AAAB cBAG | A2 B2 A2 z2 | 
FEDE FEDC | D D3 D2 z2 | 

